X:3559
T:Last Night's Joy
O:england
R:reel
S:Stefan Kayat
M:C|
K:D
~A3G FGAB|=c2cG EFGE|~A3G FDFA|(3B^cd eg fdec|
~A3G FGAB|=c2cG EFGE|~A3G FDFA|(3B^cd eg fdde||
|:f2df afdf|e2^ce gece|1 f2df afdB|^ceag fdde:|2 faaf gfed|(3B^cd eg fdec||


